X:201
T: ES IST EIN SCHUSS GEFALLEN
N: B0685
O: Europa, Mitteleuropa, Deutschland
R: Scherz - Lied
M: 2/4
L: 1/8
K: D
A, | DDEE | F2D
A | AFBA | A2z
d | dAAA | A2F
A | FDEA, | D2z

@@@ Tune index: 2419
